data/img/material/white/shortcut.svg

<svg class="icon" width="1em" height="1em" vertical-align="middle" viewBox="0 0 1024 1024" version="1.1" xmlns="http://www.w3.org/2000/svg" xmlns:xlink="http://www.w3.org/1999/xlink">
	<defs>
		<path fill="#FFF" id="OC" d="M328.996 451.348h-206.643a122 122 0 01-122.353-122.352v-206.643a122 122 0 01122.353-122.353h206.643a122 122 0 01122.352 122.353v206.643a122 122 0 01-122.352 122.352zm-206.643-387.348a58 58 0 00-58.353 58.353v206.643a58 58 0 0058.353 58.352h206.643a58 58 0 0058.352-58.352v-206.643a58 58 0 00-58.352-58.353z"/>
	</defs>
	<use xlink:href="#OC"/>
	<use xlink:href="#OC" transform="translate(509.151 0)"/>
	<use xlink:href="#OC" transform="translate(0 509.151)"/>
	<use xlink:href="#OC" transform="translate(509.151 509.151)"/>
</svg>

<?xml version="1.0" encoding="UTF-8" standalone="no"?>
<svg
   xmlns:dc="http://purl.org/dc/elements/1.1/"
   xmlns:cc="http://creativecommons.org/ns#"
   xmlns:rdf="http://www.w3.org/1999/02/22-rdf-syntax-ns#"
   xmlns:svg="http://www.w3.org/2000/svg"
   xmlns="http://www.w3.org/2000/svg"
   xmlns:sodipodi="http://sodipodi.sourceforge.net/DTD/sodipodi-0.dtd"
   xmlns:inkscape="http://www.inkscape.org/namespaces/inkscape"
   class="icon"
   style="width: 1em; height: 1em;vertical-align: middle;fill: currentColor;overflow: hidden;"
   viewBox="0 0 1024 1024"
   version="1.1"
   id="svg4"
   sodipodi:docname="shortcut.svg"
   inkscape:version="0.92.5 (2060ec1f9f, 2020-04-08)">
  <metadata
     id="metadata10">
    <rdf:RDF>
      <cc:Work
         rdf:about="">
        <dc:format>image/svg+xml</dc:format>
        <dc:type
           rdf:resource="http://purl.org/dc/dcmitype/StillImage" />
      </cc:Work>
    </rdf:RDF>
  </metadata>
  <defs
     id="defs8" />
  <sodipodi:namedview
     pagecolor="#ffffff"
     bordercolor="#666666"
     borderopacity="1"
     objecttolerance="10"
     gridtolerance="10"
     guidetolerance="10"
     inkscape:pageopacity="0"
     inkscape:pageshadow="2"
     inkscape:window-width="1872"
     inkscape:window-height="1016"
     id="namedview6"
     showgrid="false"
     inkscape:zoom="0.4609375"
     inkscape:cx="32.766837"
     inkscape:cy="780.80156"
     inkscape:window-x="1968"
     inkscape:window-y="27"
     inkscape:window-maximized="1"
     inkscape:current-layer="svg4" />
  <path
     d="M328.996 451.348 122.353 451.348C54.887 451.348 0 396.461 0 328.996L0 122.353C0 54.887 54.887 0 122.353 0l206.643 0c67.465 0 122.352 54.887 122.352 122.353l0 206.643C451.348 396.461 396.461 451.348 328.996 451.348zM122.353 64C90.177 64 64 90.177 64 122.353l0 206.643c0 32.175 26.177 58.352 58.353 58.352l206.643 0c32.175 0 58.352-26.177 58.352-58.352L387.348 122.353c0-32.176-26.177-58.353-58.352-58.353L122.353 64zM838.147 451.348 631.505 451.348c-67.466 0-122.353-54.887-122.353-122.352L509.152 122.353C509.152 54.887 564.039 0 631.505 0l206.643 0C905.613 0 960.5 54.887 960.5 122.353l0 206.643C960.5 396.461 905.613 451.348 838.147 451.348zM631.505 64c-32.176 0-58.353 26.177-58.353 58.353l0 206.643c0 32.175 26.177 58.352 58.353 58.352l206.643 0c32.176 0 58.353-26.177 58.353-58.352L896.501 122.353C896.5 90.177 870.323 64 838.147 64L631.505 64zM328.996 960.033 122.353 960.033C54.887 960.033 0 905.146 0 837.681L0 631.038c0-67.466 54.887-122.353 122.353-122.353l206.643 0c67.465 0 122.352 54.887 122.352 122.353l0 206.643C451.348 905.146 396.461 960.033 328.996 960.033zM122.353 572.686C90.177 572.686 64 598.862 64 631.038l0 206.643c0 32.176 26.177 58.353 58.353 58.353l206.643 0c32.175 0 58.352-26.177 58.352-58.353L387.348 631.038c0-32.176-26.177-58.353-58.352-58.353L122.353 572.685zM838.147 960.033 631.505 960.033c-67.466 0-122.353-54.887-122.353-122.353L509.152 631.038c0-67.466 54.887-122.353 122.353-122.353l206.643 0c67.466 0 122.353 54.887 122.353 122.353l0 206.643C960.5 905.146 905.613 960.033 838.147 960.033zM631.505 572.686c-32.176 0-58.353 26.177-58.353 58.353l0 206.643c0 32.176 26.177 58.353 58.353 58.353l206.643 0c32.176 0 58.353-26.177 58.353-58.353L896.501 631.038c0-32.176-26.177-58.353-58.353-58.353L631.505 572.685z"
     id="path2"
     style="fill:#ffffff" />
</svg>
